X: 1700
T: The Boys of Bluehill
M:2/4
L:1/16
B:O'Neill's 1700
N:"collected by West"
K:D
F-A \
| BAFA D2F-A | BABd e2d-e | faaf egfe | dfed B2d-B |
| BAFA D2F-A | BABd e2d-e | faaf egfe | d2ddd2 :|
|: f-g \
| afdf a2g-f | gfgab2a-g | faaf egfe | dfedB2d-B |
| BAFAD2F-A | BABde2d-e | faaf egfe | d2ddd2 :|
